X:1
T:Fremont, 99.99 D
T:Fremont, 99.99 D
T:A. D. Sartwell, 1902
T:Public Domain Courtesy of the Cyber Hymnal™
C:A. D. Sartwell, 1902
Z:Public Domain
Z:Courtesy of the Cyber Hymnal™
%%score ( 1 2 ) ( 3 4 )
L:1/8
Q:1/4=93
M:4/4
K:G
V:1 treble 
V:2 treble 
V:3 bass 
V:4 bass 
V:1
 [DB]>[Dc] | [Gd]2 [Gd]>[Ge] [GB]2 [FA]>[FB] | G6 [DG]>[DA] | [GB]2 [GB]>[GB] [GB]2 [EA]>[EG] | %4
 [FA]6 [GB]>[Ac] | [Bd]2 [Gd]>[Gd] [Gd]2 [Gc]>[Gd] | [Ge]6 [Ge]>[Ge] | %7
 [Gd]2 G>[GA] [GB]2 [FA]>[FA] | G6 [DG]>[GB] | [Gc]2 [Gc]>[Gc] [Gc]2 [Ge]>[Ge] | d4 B2 [GB]>[Ac] | %11
 [Bd]2 [Gd]>[Ge] [Gd]2 [Ac]>[GB] | [FA]6 [DG]>[DA] | [GB]2 [GB]>[Gc] [GB]2 [FA]>G | %14
 (c3 d !fermata!e2) [Ge]>[Ge] | [Gd]2 G>[GA] [GB]2 [FA]>[FA] | G6 |] %17
V:2
 x2 | x8 | G6 x2 | x8 | x8 | x8 | x8 | x2 G3/2 x9/2 | G6 x2 | x8 | G6 x2 | x8 | x8 | x15/2 G/ | %14
 G6 x2 | x2 G3/2 x9/2 | G6 |] %17
V:3
 G,>[G,A,] | [G,B,]2 [G,B,]>[G,C] [G,D]2 [D,C]>[D,D] | [G,B,]6 [G,B,]>[G,C] | %3
 [G,D]2 [G,D]>[=F,D] [E,E]2 [A,^C]>[A,C] | [D,D]6 [G,D]>[G,D] | %5
 [G,D]2 [G,B,]>[G,B,] [G,B,]2 [E,C]>[D,B,] | [C,C]6 [C,C]>[C,C] | %7
 [B,,D]2 [E,^C]>[E,C] [D,D]2 [D,=C]>[D,C] | [G,,G,B,]6 [G,B,]>[G,D] | %9
 [C,E]2 [C,E]>[C,E] [C,E]2 [C,C]>[C,C] | B,4 D2 [G,D]>[G,D] | %11
 [G,D]2 [G,B,]>[G,C] [G,B,]2 [F,D]>[G,D] | [D,D]6 [G,B,]>[G,C] | %13
 [G,D]2 [G,D]>[G,E] [G,D]2 [D,C]>[E,B,] | ([E,C]3 [D,B,] !fermata![C,C]2) [C,C]>[C,C] | %15
 [B,,D]2 [E,^C]>[E,C] [D,D]2 [D,=C]>[D,C] | [G,,G,B,]6 |] %17
V:4
 G,3/2 x/ | x8 | x8 | x8 | x8 | x8 | x8 | x8 | x8 | x8 | G,6 x2 | x8 | x8 | x8 | x8 | x8 | x6 |] %17

